X:1
T:Secret Prayer
T:Charles Hutchinson Gabriel, 1922
T:Secret Prayer
T:Public Domain
T:Public Domain
C:Charles Hutchinson Gabriel, 1922
Z:Public Domain
%%score ( 1 2 ) ( 3 4 )
L:1/8
M:3/4
K:Bb
V:1 treble 
V:2 treble 
V:3 bass 
V:4 bass 
V:1
 [Fd]4"^Male voices sing the melody" [Ec]>[DB] x/ | [DF]6 | ([EG]3 [FA]) [GB]>[_Gc] | [Fd]6 | %4
w: 1.~Sweet se- cret|prayer,|com- * fort di-|vine,|
w: 2.~Sweet se- cret|prayer,|com- * fort di-|vine,|
w: 3.~Sweet se- cret|prayer,|com- * fort di-|vine,|
 [Ec]4 (3([Ec][DB])[CA] | [DB]4 [Fd]2 | (c3 G) [_EA][EB] | ([Ec]4 [=E^c]2) | [Fd]4 [Ec]>[DB] x/ | %9
w: There, O * my|Lord, I|know * Thou art|Great *|Mas- ter, there|
w: There do * Thine|arms, Lord,|round * me en-|Riv- *|ers of love|
w: There do * I|feel I|tru- * ly am|Heav’n’s *|win- dows o-|
 [DF]4 [DF]2 | [_AB]4 [AB]>[AB] | (G4 _G2) | [Fd]3 [Fd] [Fd]2 | [Fd]2 [Ec]2 [DB]2 | %14
w: in se-|cret with Thee,|Heav- *|comes near- er|and near- er|
w: and mer-|cy there flow,|Balm *|all sor- row|that mor- tal|
w: pen, Je-|sus is near,|Near *|my soul, and|the Fa- ther|
 [Ec]2 [DB]2 [CA]2 | [DB]6 ||"^Refrain" [DB]3 [EB] [FB]2 | [GB]4 [EG]2 | [DF]2 [CF]2 [EF]2 | %19
w: to me. *|||||
w: can know. *|||||
w: will hear. *|||||
 [DF]6 | [EG]3 [B,F] [B,E]2 | [EB]2 [EA]2 [EG]2 | [DF] [DB]3 [EA]2 | [DB]6 |] %24
w: |||||
w: |||||
w: |||||
V:2
 x13/2 | x6 | x6 | x6 | x6 | x6 | =E4 x2 | x6 | x13/2 | x6 | x6 | e6 | x6 | x6 | x6 | x6 || x6 | %17
w: ||||||mine;|||||en||||||
w: ||||||twine;|||||for||||||
w: ||||||thine;|||||to||||||
 x6 | x6 | x6 | x6 | x6 | x6 | x6 |] %24
w: |||||||
w: |||||||
w: |||||||
V:3
 (B,,F, B,)F, (A, z/) B,/ x/ | B,,F, B,F, B,F, | (B,,G, B,[G,A,]) (B, z/) C/ | B,,F, B,F, B,F, | %4
w: ~ * * ~ ~ ~||~ * * * ~ ~||
 (G,,F, A,F,) (3([A,C]B,)A, | (B,,F, B,F,) ([B,D]B,,) | (C,G, CG,) [A,C][G,B,] | %7
w: ~ * * * ~ * ~|~ * * * ~ *|~ * * * ~ ~|
 (F,,F, A,F, A,G,) | (B,,F, B,F,) (A, z/) B,/ x/ | B,,F, B,F, (B,F,) | (B,,F, DC) ([B,-D] z/) B,/ | %11
w: ~ * * * * *|~ * * * ~ ~|* * * * Bless- *|tend * * * and *|
 G,G, B,G, B,[_G,B,] | D3 D D2 | D2 C2 B,2 | C2 B,2 A,2 | [B,,F,B,]6 || [B,,F,]3 [C,F,] [D,B,]2 | %17
w: |there; Heav- en|near- er and|near- er in|prayer.||
 [E,E]4 [E,B,]2 | [F,B,]2 [F,A,]2 [F,C]2 | [B,,B,]6 | [E,B,]3 [E,_A,] [E,G,]2 | %21
w: ||||
 [E,G,]2 [E,G,]2 [E,B,]2 | [F,B,] F,3 F,2 | [B,,F,]6 |] %24
w: |||
V:4
 D4 C3/2F, | F,6 | G,3 B,3/2_G, x/ | D6 | C4 x2 | B,4 x2 | C3 x3 | C6 | D4 C3/2F, | F,4 F,2 | %10
w: ~ ~ ~|~|~ ~ ~|~|~|~|~|~|~ ~ ~|ings at-|
 B,4 B, x | E6 | F,6- | F,6- | [F,,F,-]6 | x6 || x6 | x6 | x6 | x6 | x6 | x6 | x F,3 F,2 | x6 |] %24
w: fol- low|us|comes||||||||||||

